resources/svg/brands/nfc-directional.svg

<svg fill="currentColor" xmlns="http://www.w3.org/2000/svg" viewBox="0 0 512 512"><!--! Font Awesome Free 6.7.2 by @fontawesome - https://fontawesome.com License - https://fontawesome.com/license/free (Icons: CC BY 4.0, Fonts: SIL OFL 1.1, Code: MIT License) Copyright 2024 Fonticons, Inc. --><path d="M211.8 488.6C213.4 491.1 213.9 494.2 213.2 497.1C212.6 500 210.8 502.6 208.3 504.2C205.7 505.8 202.7 506.3 199.7 505.7C138.3 491.8 84.1 455.8 47.53 404.5C10.97 353.2-5.395 290.3 1.57 227.7C8.536 165 38.34 107.2 85.29 65.21C132.2 23.2 193-.0131 256 0C257.5 0 258.1 .2931 260.3 .8627C261.7 1.432 262.1 2.267 264 3.319C265.1 4.371 265.9 5.619 266.5 6.993C267 8.367 267.3 9.839 267.3 11.32V112.3L291.8 86.39C292.8 85.31 294 84.44 295.4 83.84C296.7 83.23 298.2 82.9 299.7 82.86C301.2 82.81 302.6 83.06 304 83.59C305.4 84.12 306.7 84.92 307.8 85.94C308.8 86.96 309.7 88.18 310.3 89.54C310.9 90.89 311.3 92.35 311.3 93.84C311.3 95.32 311.1 96.8 310.6 98.18C310 99.57 309.2 100.8 308.2 101.9L264.2 148.5C263.1 149.6 261.9 150.5 260.5 151.1C259 151.7 257.5 152 255.1 152C254.5 152 252.9 151.7 251.5 151.1C250.1 150.5 248.8 149.6 247.8 148.5L203.7 101.9C201.7 99.74 200.6 96.83 200.7 93.84C200.7 90.84 202 87.1 204.2 85.94C206.4 83.88 209.3 82.77 212.3 82.86C215.3 82.94 218.1 84.21 220.2 86.39L244.7 112.4V22.89C188.3 25.64 134.9 48.73 94.23 87.87C53.58 127 28.49 179.6 23.61 235.8C18.73 292 34.38 348.1 67.68 393.7C100.1 439.2 149.7 471.2 204.7 483.6C207.6 484.3 210.2 486.1 211.8 488.6L211.8 488.6zM171.4 126.1C170.6 127.4 169.5 128.5 168.3 129.3C147.8 143.2 131.1 161.9 119.5 183.8C107.9 205.7 101.8 230.1 101.8 254.9C101.8 279.7 107.9 304.1 119.5 325.1C131.1 347.9 147.8 366.6 168.3 380.5C170.8 382.2 172.5 384.8 173 387.8C173.6 390.7 172.1 393.8 171.3 396.2C169.6 398.7 166.1 400.4 164 400.1C161.1 401.5 158 400.9 155.6 399.2C132 383.2 112.8 361.7 99.46 336.5C86.15 311.4 79.19 283.4 79.19 254.9C79.19 226.5 86.15 198.4 99.46 173.3C112.8 148.1 132 126.6 155.6 110.6C156.8 109.8 158.2 109.2 159.6 108.8C161.1 108.5 162.6 108.5 164.1 108.8C165.5 109 166.9 109.6 168.2 110.4C169.5 111.2 170.5 112.3 171.4 113.5C172.2 114.7 172.8 116.1 173.1 117.6C173.4 119.1 173.4 120.6 173.1 122C172.8 123.5 172.3 124.9 171.4 126.1H171.4zM340.9 383.5C341.7 382.3 342.8 381.2 343.1 380.4V380.3C364.4 366.3 381.1 347.6 392.7 325.7C404.2 303.9 410.2 279.5 410.2 254.8C410.2 230.1 404.2 205.7 392.7 183.8C381.1 161.1 364.4 143.3 343.1 129.3C342.8 128.5 341.7 127.4 340.9 126.2C340.1 124.9 339.5 123.5 339.3 122.1C338.1 120.6 339 119.1 339.3 117.7C339.6 116.2 340.2 114.8 341 113.6C341.9 112.4 342.1 111.3 344.2 110.5C345.4 109.7 346.8 109.2 348.3 108.9C349.8 108.6 351.2 108.6 352.7 108.9C354.2 109.2 355.5 109.8 356.8 110.7C380.2 126.7 399.5 148.2 412.7 173.3C426 198.4 432.1 226.4 432.1 254.8C432.1 283.3 426 311.3 412.7 336.4C399.5 361.5 380.2 383 356.8 399C355.5 399.9 354.2 400.5 352.7 400.8C351.2 401.1 349.8 401.1 348.3 400.8C346.8 400.5 345.4 399.1 344.2 399.2C342.1 398.4 341.9 397.3 341 396.1C340.2 394.9 339.6 393.5 339.3 392C339 390.6 338.1 389.1 339.3 387.6C339.5 386.2 340.1 384.8 340.9 383.5V383.5zM312.3 6.307C368.5 19.04 418.7 50.28 455 95.01C485.4 132.6 504.6 178 510.3 226C515.9 274 507.9 322.7 487.1 366.3C466.2 409.9 433.5 446.8 392.6 472.6C351.7 498.3 304.4 512 256 512C254.5 512 253.1 511.7 251.7 511.1C250.3 510.6 249.1 509.7 248 508.7C246.1 507.6 246.1 506.4 245.6 505C245 503.6 244.7 502.2 244.7 500.7V401.5L220.2 427.5C218.1 429.7 215.3 430.1 212.3 431.1C209.3 431.2 206.4 430 204.2 427.1C202 425.9 200.7 423.1 200.7 420.1C200.6 417.1 201.7 414.2 203.7 412L247.8 365.4C249.1 363.2 252.9 362 255.1 362C259.1 362 262 363.2 264.2 365.4L308.2 412C310.3 414.2 311.4 417.1 311.3 420.1C311.2 423.1 309.9 425.9 307.8 427.1C305.6 430 302.7 431.2 299.7 431.1C296.7 430.1 293.8 429.7 291.8 427.5L267.3 401.6V489.1C323.7 486.3 377.1 463.3 417.8 424.1C458.5 384.1 483.6 332.4 488.5 276.2C493.3 219.1 477.7 163.9 444.4 118.3C411.1 72.75 362.4 40.79 307.4 28.36C305.9 28.03 304.6 27.42 303.3 26.57C302.1 25.71 301.1 24.63 300.3 23.37C299.5 22.12 298.1 20.72 298.7 19.26C298.5 17.8 298.5 16.3 298.8 14.85C299.2 13.41 299.8 12.04 300.6 10.82C301.5 9.61 302.6 8.577 303.8 7.784C305.1 6.99 306.5 6.451 307.9 6.198C309.4 5.945 310.9 5.982 312.3 6.307L312.3 6.307zM353.1 256.1C353.1 287.5 335.6 317.2 303.8 339.6C301.7 341.1 299 341.9 296.4 341.6C293.7 341.4 291.2 340.3 289.4 338.4L219.3 268.6C217.1 266.5 215.1 263.6 215.9 260.6C215.9 257.6 217.1 254.7 219.2 252.6C221.4 250.5 224.2 249.3 227.2 249.3C230.2 249.3 233.1 250.5 235.2 252.6L298.3 315.4C319.1 298.3 330.5 277.5 330.5 256.1C330.5 232.2 316.4 209.1 290.8 191C288.3 189.3 286.7 186.7 286.2 183.7C285.7 180.8 286.3 177.7 288.1 175.3C289.8 172.8 292.4 171.2 295.4 170.7C298.3 170.2 301.4 170.8 303.8 172.6C335.6 195 353.1 224.7 353.1 256.1V256.1zM216.7 341.5C213.7 342 210.7 341.3 208.2 339.6C176.5 317.2 158.1 287.5 158.1 256.1C158.1 224.7 176.5 195 208.2 172.6C210.4 171 213.1 170.3 215.7 170.5C218.4 170.8 220.8 171.9 222.7 173.8L292.8 243.6C294.9 245.7 296.1 248.6 296.1 251.6C296.1 254.6 294.1 257.4 292.8 259.6C290.7 261.7 287.8 262.9 284.9 262.9C281.9 262.9 278.1 261.7 276.9 259.6L213.8 196.7C192.9 214 181.6 234.7 181.6 256.1C181.6 279.1 195.7 303.1 221.3 321.1C223.7 322.9 225.4 325.5 225.9 328.5C226.4 331.4 225.7 334.4 224 336.9C222.3 339.3 219.6 341 216.7 341.5L216.7 341.5z"/></svg>

<svg fill="currentColor" xmlns="http://www.w3.org/2000/svg" viewBox="0 0 512 512"><!--! Font Awesome Free 7.0.1 by @fontawesome - https://fontawesome.com License - https://fontawesome.com/license/free (Icons: CC BY 4.0, Fonts: SIL OFL 1.1, Code: MIT License) Copyright 2025 Fonticons, Inc. --><path fill="currentColor" d="M211.8 488.6c1.6 2.5 2.1 5.6 1.4 8.5-.6 2.9-2.4 5.5-4.9 7.1-2.6 1.6-5.6 2.1-8.6 1.5-61.4-13.9-115.6-49.9-152.2-101.2S-5.4 290.3 1.6 227.7c7-62.7 36.8-120.5 83.7-162.5 46.9-42 107.7-65.2 170.7-65.2 1.5 0 2.1 .3 4.3 .9 1.4 .6 1.8 1.4 3.7 2.5 1.1 1.1 1.9 2.3 2.5 3.7 .5 1.4 .8 2.8 .8 4.3l0 101 24.5-25.9c1-1.1 2.2-2 3.6-2.6 1.3-.6 2.8-.9 4.3-1 1.5-.1 2.9 .2 4.3 .7s2.7 1.3 3.8 2.4c1 1 1.9 2.2 2.5 3.6 .6 1.3 1 2.8 1 4.3s-.2 3-.7 4.3c-.6 1.4-1.4 2.6-2.4 3.7l-44 46.6c-1.1 1.1-2.3 2-3.7 2.6-1.5 .6-3 .9-5.4 .9-.6 0-2.2-.3-3.6-.9s-2.7-1.5-3.7-2.6l-44.1-46.6c-2-2.2-3.1-5.1-3-8.1 0-3 1.3-6.7 3.5-7.9 2.2-2.1 5.1-3.2 8.1-3.1 3 .1 5.8 1.3 7.9 3.5l24.5 26 0-89.5c-56.4 2.8-109.8 25.8-150.5 65-40.6 39.1-65.7 91.7-70.6 147.9S34.4 348.1 67.7 393.7c32.4 45.5 82 77.5 137 89.9 2.9 .7 5.5 2.5 7.1 5zM171.4 126.1c-.8 1.3-1.9 2.4-3.1 3.2-20.5 13.9-37.2 32.6-48.8 54.5s-17.7 46.3-17.7 71.1 6.1 49.2 17.7 70.2c11.6 22.8 28.3 41.5 48.8 55.4 2.5 1.7 4.2 4.3 4.7 7.3 .6 2.9-.9 6-1.7 8.4-1.7 2.5-5.2 4.2-7.3 3.9-2.9 1.4-6 .8-8.4-.9-23.6-16-42.8-37.5-56.1-62.7-13.3-25.1-20.3-53.1-20.3-81.6 0-28.4 7-56.5 20.3-81.6 13.3-25.2 32.5-46.7 56.1-62.7 1.2-.8 2.6-1.4 4-1.8 1.5-.3 3-.3 4.5 0 1.4 .2 2.8 .8 4.1 1.6s2.3 1.9 3.2 3.1c.8 1.2 1.4 2.6 1.7 4.1s.3 3 0 4.4c-.3 1.5-.8 2.9-1.7 4.1zM340.9 383.5c.8-1.2 1.9-2.3 2.2-3.1l0-.1c21.3-14 38-32.7 49.6-54.6 11.5-21.8 17.5-46.2 17.5-70.9s-6-49.1-17.5-71c-11.6-22.7-28.3-40.5-49.6-54.5-.3-.8-1.4-1.9-2.2-3.1-.8-1.3-1.4-2.7-1.6-4.1-1.2-1.5-.3-3 0-4.4 .3-1.5 .9-2.9 1.7-4.1 .9-1.2 1.1-2.3 3.2-3.1 1.2-.8 2.6-1.3 4.1-1.6s2.9-.3 4.4 0 2.8 .9 4.1 1.8c23.4 16 42.7 37.5 55.9 62.6 13.3 25.1 19.4 53.1 19.4 81.5 0 28.5-6.1 56.5-19.4 81.6-13.2 25.1-32.5 46.6-55.9 62.6-1.3 .9-2.6 1.5-4.1 1.8s-2.9 .3-4.4 0-2.9-1.7-4.1-1.6c-2.1-.8-2.3-1.9-3.2-3.1-.8-1.2-1.4-2.6-1.7-4.1-.3-1.4-1.2-2.9 0-4.4 .2-1.4 .8-2.8 1.6-4.1zM312.3 6.3c56.2 12.7 106.4 44 142.7 88.7 30.4 37.6 49.6 83 55.3 131 5.6 48-2.4 96.7-23.2 140.3-20.9 43.6-53.6 80.5-94.5 106.3-40.9 25.7-88.2 39.4-136.6 39.4-1.5 0-2.9-.3-4.3-.9-1.4-.5-2.6-1.4-3.7-2.4-1.9-1.1-1.9-2.3-2.4-3.7-.6-1.4-.9-2.8-.9-4.3l0-99.2-24.5 26c-2.1 2.2-4.9 2.6-7.9 3.6-3 .1-5.9-1.1-8.1-4-2.2-1.2-3.5-4-3.5-7-.1-3 1-5.9 3-8.1l44.1-46.6c1.3-2.2 5.1-3.4 7.3-3.4 4 0 6.9 1.2 9.1 3.4l44 46.6c2.1 2.2 3.2 5.1 3.1 8.1s-1.4 5.8-3.5 7c-2.2 2.9-5.1 4.1-8.1 4-3-1-5.9-1.4-7.9-3.6l-24.5-25.9 0 87.5c56.4-2.8 109.8-25.8 150.5-65 40.7-40 65.8-91.7 70.7-147.9 4.8-57.1-10.8-112.3-44.1-157.9-33.3-45.6-82-77.5-137-89.9-1.5-.3-2.8-.9-4.1-1.8-1.2-.9-2.2-1.9-3-3.2-.8-1.2-2.2-2.6-1.6-4.1-.2-1.5-.2-3 .1-4.4 .4-1.4 1-2.8 1.8-4 .9-1.2 2-2.2 3.2-3 1.3-.8 2.7-1.3 4.1-1.6 1.5-.3 3-.2 4.4 .1zm40.8 249.8c0 31.4-17.5 61.1-49.3 83.5-2.1 1.5-4.8 2.3-7.4 2-2.7-.2-5.2-1.3-7-3.2l-70.1-69.8c-2.2-2.1-4.2-5-3.4-8 0-3 1.2-5.9 3.3-8 2.2-2.1 5-3.3 8-3.3s5.9 1.2 8 3.3l63.1 62.8c20.8-17.1 32.2-37.9 32.2-59.3 0-23.9-14.1-47-39.7-65.1-2.5-1.7-4.1-4.3-4.6-7.3-.5-2.9 .1-6 1.9-8.4 1.7-2.5 4.3-4.1 7.3-4.6 2.9-.5 6 .1 8.4 1.9 31.8 22.4 49.3 52.1 49.3 83.5zM216.7 341.5c-3 .5-6-.2-8.5-1.9-31.7-22.4-50.1-52.1-50.1-83.5s18.4-61.1 50.1-83.5c2.2-1.6 4.9-2.3 7.5-2.1 2.7 .3 5.1 1.4 7 3.3l70.1 69.8c2.1 2.1 3.3 5 3.3 8s-2 5.8-3.3 8c-2.1 2.1-5 3.3-7.9 3.3-3 0-6.8-1.2-8-3.3l-63.1-62.9c-20.9 17.3-32.2 38-32.2 59.4 0 23 14.1 47 39.7 65 2.4 1.8 4.1 4.4 4.6 7.4 .5 2.9-.2 5.9-1.9 8.4-1.7 2.4-4.4 4.1-7.3 4.6z"/></svg>
